static/assets/template/assets/img/icons/essential/detailed/Headphones.svg

<svg height="149" viewBox="0 0 146 149" width="146" xmlns="http://www.w3.org/2000/svg"><g fill="none" fill-rule="evenodd" transform="translate(1 2)"><path d="m132.6 83v-16.9c0-18-7.8-34.1-20.2-45.3l1.7-1.9c1-1.1.9-2.7-.2-3.6-11.5-9.5-26.2-15.3-42.2-15.3-16.4 0-31.4 6-43 15.9-1.1 1-1.2 2.7-.1 3.7l1.8 1.7c-12 11.1-19.6 27.1-19.6 44.7v17.1c-6.1 3.6-10.2 10.3-10.2 18v11.9c0 11.5 9.4 20.9 20.9 20.9v1.5c0 4.9 4 9 9 9 4.9 0 9-4 9-9v-56.7c0-4.9-4-9-9-9-4.9 0-9 4-9 9v1.5c-.8 0-1.5 0-2.2.1v-14.3c0-15.4 6.6-29.2 17.2-38.8l2.1 2c.9.9 2.4.9 3.4.1 8.1-6.7 18.5-10.6 29.9-10.6 11.2 0 21.5 3.9 29.6 10.5 1 .8 2.5.7 3.4-.2l1.9-2c10.7 9.6 17.5 23.6 17.5 39.1v14.3c-.6-.1-1.2-.1-1.8-.1v-1.5c0-4.9-4-9-9-9-4.9 0-9 4-9 9v56.7c0 4.9 4 9 9 9 4.9 0 9-4 9-9v-1.5c11.5 0 20.9-9.4 20.9-20.9v-11.9c-.1-7.8-4.4-14.6-10.8-18.2z" fill-rule="nonzero"/><path d="m128.4 103.2c-2.3 0-4.2-1.9-4.2-4.2v-32.8c0-28.9-23.5-52.5-52.5-52.5-28.9 0-52.5 23.5-52.5 52.5v32.8c0 2.3-1.9 4.2-4.2 4.2s-4.2-1.9-4.2-4.2v-32.8c0-33.6 27.3-60.9 60.9-60.9s60.9 27.3 60.9 60.9v32.8c0 2.3-1.8 4.2-4.2 4.2z" fill-rule="nonzero"/><g stroke-linecap="round" stroke-linejoin="round" stroke-width="3"><path d="m132.6 83v16c0 2.3-1.9 4.2-4.2 4.2s-4.2-1.9-4.2-4.2v-32.8c0-28.9-23.5-52.5-52.5-52.5-28.9 0-52.5 23.5-52.5 52.5v32.8c0 2.3-1.9 4.2-4.2 4.2s-4.2-1.9-4.2-4.2v-32.8c0-33.6 27.3-60.9 60.9-60.9s60.9 27.3 60.9 60.9v5.2"/><path d="m22.5 74.7c1.5-2.8 4.5-4.8 7.9-4.8 4.9 0 9 4 9 9v56.7c0 4.9-4 9-9 9-4.9 0-9-4-9-9v-55.1"/><path d="m13.4 132.4c-7.5-3.2-12.8-10.6-12.8-19.3v-11.9c0-11.5 9.4-20.9 20.9-20.9v53.7" fill-rule="nonzero"/><path d="m104.5 91.7v25"/><path d="m104.5 125v10.5c0 4.9 4 9 9 9 4.9 0 9-4 9-9v-56.7c0-4.9-4-9-9-9-4.9 0-9 4-9 9v5.6"/><path d="m122.4 134c11.5 0 20.9-9.4 20.9-20.9v-11.9c0-11.5-9.4-20.9-20.9-20.9z" fill-rule="nonzero"/></g><path d="m114.8 17.8c-.1.4-.3.9-.6 1.2l-9.4 10c-.4.5-1 .7-1.6.8s-1.3-.1-1.9-.6c-2.9-2.3-6-4.3-9.4-5.9-6.1-2.9-13-4.5-20.2-4.5-11.2 0-21.4 3.9-29.5 10.4-.1.1-.2.2-.3.3-1 .8-2.4.8-3.4-.1l-9.9-9.6c-1.1-1-1-2.7.1-3.7 11.6-9.9 26.6-15.9 43-15.9 16 0 30.8 5.7 42.2 15.3.8.5 1.1 1.4.9 2.3z" fill-rule="nonzero"/><path d="m114.8 17.8c-.1.4-.3.9-.6 1.2l-9.4 10c-.4.5-1 .7-1.6.8-.4-.1-.8-.2-1.2-.5-3.1-2.4-6.5-4.4-10.1-6-6.1-2.9-13-4.5-20.2-4.5-11.2 0-21.4 3.9-29.5 10.4l-9.2-8.7c-1-.9-1-2.5.1-3.4 11-9.2 25.2-14.7 40.8-14.7 15.2 0 29.2 5.3 40.1 14.1.4.4.7.8.8 1.3z" fill-rule="nonzero"/><path d="m56.2 1.9c5-1.2 10.2-1.8 15.5-1.8 16 0 30.8 5.7 42.2 15.3 1.1.9 1.2 2.6.2 3.6l-9.4 10c-.9 1-2.4 1.1-3.4.2-8.1-6.5-18.4-10.5-29.6-10.5-11.3 0-21.7 4-29.9 10.6-1 .8-2.4.8-3.4-.1l-9.9-9.6c-1.1-1-1-2.7.1-3.7 2.7-2.3 5.6-4.4 8.7-6.3" stroke-linecap="round" stroke-linejoin="round" stroke-width="3"/><path d="m43.8 6.3c1.5-.7 3-1.3 4.5-1.9" stroke-linecap="round" stroke-linejoin="round" stroke-width="3"/></g></svg>

<?xml version="1.0" encoding="UTF-8"?>
<svg width="146px" height="149px" viewBox="0 0 146 149" version="1.1" xmlns="http://www.w3.org/2000/svg" xmlns:xlink="http://www.w3.org/1999/xlink">
    <!-- Generator: Sketch 51.2 (57519) - http://www.bohemiancoding.com/sketch -->
    <title>Headphones</title>
    <desc>Created with Sketch.</desc>
    <defs></defs>
    <g id="Page-1" stroke="none" stroke-width="1" fill="none" fill-rule="evenodd">
        <g id="Headphones" transform="translate(1.000000, 2.000000)">
            <path d="M132.6,83 L132.6,66.1 C132.6,48.1 124.8,32 112.4,20.8 L114.1,18.9 C115.1,17.8 115,16.2 113.9,15.3 C102.4,5.8 87.7,0 71.7,0 C55.3,0 40.3,6 28.7,15.9 C27.6,16.9 27.5,18.6 28.6,19.6 L30.4,21.3 C18.4,32.4 10.8,48.4 10.8,66 L10.8,83.1 C4.7,86.7 0.6,93.4 0.6,101.1 L0.6,113 C0.6,124.5 10,133.9 21.5,133.9 L21.5,135.4 C21.5,140.3 25.5,144.4 30.5,144.4 C35.4,144.4 39.5,140.4 39.5,135.4 L39.5,78.7 C39.5,73.8 35.5,69.7 30.5,69.7 C25.6,69.7 21.5,73.7 21.5,78.7 L21.5,80.2 C20.7,80.2 20,80.2 19.3,80.3 L19.3,66 C19.3,50.6 25.9,36.8 36.5,27.2 L38.6,29.2 C39.5,30.1 41,30.1 42,29.3 C50.1,22.6 60.5,18.7 71.9,18.7 C83.1,18.7 93.4,22.6 101.5,29.2 C102.5,30 104,29.9 104.9,29 L106.8,27 C117.5,36.6 124.3,50.6 124.3,66.1 L124.3,80.4 C123.7,80.3 123.1,80.3 122.5,80.3 L122.5,78.8 C122.5,73.9 118.5,69.8 113.5,69.8 C108.6,69.8 104.5,73.8 104.5,78.8 L104.5,135.5 C104.5,140.4 108.5,144.5 113.5,144.5 C118.4,144.5 122.5,140.5 122.5,135.5 L122.5,134 C134,134 143.4,124.6 143.4,113.1 L143.4,101.2 C143.3,93.4 139,86.6 132.6,83 Z" id="Shape" class="fill-neutral" fill-rule="nonzero"></path>
            <path d="M128.4,103.2 C126.1,103.2 124.2,101.3 124.2,99 L124.2,66.2 C124.2,37.3 100.7,13.7 71.7,13.7 C42.8,13.7 19.2,37.2 19.2,66.2 L19.2,99 C19.2,101.3 17.3,103.2 15,103.2 C12.7,103.2 10.8,101.3 10.8,99 L10.8,66.2 C10.8,32.6 38.1,5.3 71.7,5.3 C105.3,5.3 132.6,32.6 132.6,66.2 L132.6,99 C132.6,101.3 130.8,103.2 128.4,103.2 Z" id="Shape" class="fill-primary-400" fill-rule="nonzero"></path>
            <path d="M132.6,83 L132.6,99 C132.6,101.3 130.7,103.2 128.4,103.2 C126.1,103.2 124.2,101.3 124.2,99 L124.2,66.2 C124.2,37.3 100.7,13.7 71.7,13.7 C42.8,13.7 19.2,37.2 19.2,66.2 L19.2,99 C19.2,101.3 17.3,103.2 15,103.2 C12.7,103.2 10.8,101.3 10.8,99 L10.8,66.2 C10.8,32.6 38.1,5.3 71.7,5.3 C105.3,5.3 132.6,32.6 132.6,66.2 L132.6,71.4" id="Shape" class="stroke-primary" stroke-width="3" stroke-linecap="round" stroke-linejoin="round"></path>
            <path d="M22.5,74.7 C24,71.9 27,69.9 30.4,69.9 C35.3,69.9 39.4,73.9 39.4,78.9 L39.4,135.6 C39.4,140.5 35.4,144.6 30.4,144.6 C25.5,144.6 21.4,140.6 21.4,135.6 L21.4,80.5" id="Shape" class="stroke-primary" stroke-width="3" stroke-linecap="round" stroke-linejoin="round"></path>
            <path d="M13.4,132.4 C5.9,129.2 0.6,121.8 0.6,113.1 L0.6,101.2 C0.6,89.7 10,80.3 21.5,80.3 L21.5,134" id="Shape" stroke-width="3" class="stroke-primary fill-primary-100" fill-rule="nonzero" stroke-linecap="round" stroke-linejoin="round"></path>
            <path d="M104.5,91.7 L104.5,116.7" id="Shape" class="stroke-primary" stroke-width="3" stroke-linecap="round" stroke-linejoin="round"></path>
            <path d="M104.5,125 L104.5,135.5 C104.5,140.4 108.5,144.5 113.5,144.5 C118.4,144.5 122.5,140.5 122.5,135.5 L122.5,78.8 C122.5,73.9 118.5,69.8 113.5,69.8 C108.6,69.8 104.5,73.8 104.5,78.8 L104.5,84.4" id="Shape" class="stroke-primary" stroke-width="3" stroke-linecap="round" stroke-linejoin="round"></path>
            <path d="M122.4,134 C133.9,134 143.3,124.6 143.3,113.1 L143.3,101.2 C143.3,89.7 133.9,80.3 122.4,80.3 L122.4,134 Z" id="Shape" stroke-width="3" class="stroke-primary fill-primary-100" fill-rule="nonzero" stroke-linecap="round" stroke-linejoin="round"></path>
            <path d="M114.8,17.8 C114.7,18.2 114.5,18.7 114.2,19 L104.8,29 C104.4,29.5 103.8,29.7 103.2,29.8 C102.6,29.9 101.9,29.7 101.3,29.2 C98.4,26.9 95.3,24.9 91.9,23.3 C85.8,20.4 78.9,18.8 71.7,18.8 C60.5,18.8 50.3,22.7 42.2,29.2 C42.1,29.3 42,29.4 41.9,29.5 C40.9,30.3 39.5,30.3 38.5,29.4 L28.6,19.8 C27.5,18.8 27.6,17.1 28.7,16.1 C40.3,6.2 55.3,0.2 71.7,0.2 C87.7,0.2 102.5,5.9 113.9,15.5 C114.7,16 115,16.9 114.8,17.8 Z" id="Shape" class="fill-neutral" fill-rule="nonzero"></path>
            <path d="M114.8,17.8 C114.7,18.2 114.5,18.7 114.2,19 L104.8,29 C104.4,29.5 103.8,29.7 103.2,29.8 C102.8,29.7 102.4,29.6 102,29.3 C98.9,26.9 95.5,24.9 91.9,23.3 C85.8,20.4 78.9,18.8 71.7,18.8 C60.5,18.8 50.3,22.7 42.2,29.2 L33,20.5 C32,19.6 32,18 33.1,17.1 C44.1,7.9 58.3,2.4 73.9,2.4 C89.1,2.4 103.1,7.7 114,16.5 C114.4,16.9 114.7,17.3 114.8,17.8 Z" id="Shape" class="fill-primary-100" fill-rule="nonzero"></path>
            <path d="M56.2,1.9 C61.2,0.7 66.4,0.1 71.7,0.1 C87.7,0.1 102.5,5.8 113.9,15.4 C115,16.3 115.1,18 114.1,19 L104.7,29 C103.8,30 102.3,30.1 101.3,29.2 C93.2,22.7 82.9,18.7 71.7,18.7 C60.4,18.7 50,22.7 41.8,29.3 C40.8,30.1 39.4,30.1 38.4,29.2 L28.5,19.6 C27.4,18.6 27.5,16.9 28.6,15.9 C31.3,13.6 34.2,11.5 37.3,9.6" id="Shape" class="stroke-primary" stroke-width="3" stroke-linecap="round" stroke-linejoin="round"></path>
            <path d="M43.8,6.3 C45.3,5.6 46.8,5 48.3,4.4" id="Shape" class="stroke-primary" stroke-width="3" stroke-linecap="round" stroke-linejoin="round"></path>
        </g>
    </g>
</svg>
